T: Leila's Birthday
M: 4/4
L: 1/8
K: Gmin
d2GG BAGF | G2DD ABGF | CEGe dGeG | EFdF cFAc |
d2GG BAGF | G2DD ABGF | CEGB cEEE |1 cBAB cGBc :|[2 cBAB cdef] |
g2gg b2(f2|f)fBf bagf | gfga baba | gfgb dcdf |
[1 g2gg b2(f2|f)fBf bagf | gfed edef | g2dB c2df :|]
[2 g2dB c2cd | (3GGG dG cdcB | cdE2 dcBc | d2fd gfdc |]